status/symbolic/rotation-locked-symbolic.svg

<?xml version="1.0" encoding="UTF-8" standalone="no"?>
<!-- Created with Inkscape (http://www.inkscape.org/) -->

<svg
   xmlns:dc="http://purl.org/dc/elements/1.1/"
   xmlns:cc="http://creativecommons.org/ns#"
   xmlns:rdf="http://www.w3.org/1999/02/22-rdf-syntax-ns#"
   xmlns:svg="http://www.w3.org/2000/svg"
   xmlns="http://www.w3.org/2000/svg"
   xmlns:sodipodi="http://sodipodi.sourceforge.net/DTD/sodipodi-0.dtd"
   xmlns:inkscape="http://www.inkscape.org/namespaces/inkscape"
   id="svg7384"
   style="enable-background:new"
   height="16"
   width="16.001"
   version="1.1"
   inkscape:version="0.91 r13725"
   sodipodi:docname="rotation-locked-symbolic.svg">
  <sodipodi:namedview
     pagecolor="#ffffff"
     bordercolor="#666666"
     borderopacity="1"
     objecttolerance="10"
     gridtolerance="10"
     guidetolerance="10"
     inkscape:pageopacity="0"
     inkscape:pageshadow="2"
     inkscape:window-width="640"
     inkscape:window-height="480"
     id="namedview4157"
     showgrid="false"
     inkscape:zoom="29.123961"
     inkscape:cx="-0.9355413"
     inkscape:cy="11.776983"
     inkscape:current-layer="svg7384" />
  <metadata
     id="metadata90">
    <rdf:RDF>
      <cc:Work
         rdf:about="">
        <dc:format>image/svg+xml</dc:format>
        <dc:type
           rdf:resource="http://purl.org/dc/dcmitype/StillImage" />
        <dc:title>Paper Symbolic Icon Theme</dc:title>
      </cc:Work>
    </rdf:RDF>
  </metadata>
  <title
     id="title8473">Paper Symbolic Icon Theme</title>
  <defs
     id="defs7386">
    <filter
       id="filter7554"
       style="color-interpolation-filters:sRGB">
      <feBlend
         id="feBlend7556"
         in2="BackgroundImage"
         mode="darken" />
    </filter>
  </defs>
  <g
     id="g4787">
    <path
       inkscape:connector-curvature="0"
       id="path4779"
       d="M 11.253962,1.8374491 A 1.3220229,1.3220229 0 0 0 9.931697,3.1597148 l 0,0.2636718 A 0.52880915,0.52880915 0 0 0 9.4024,3.9526835 l 0,2.1152344 a 0.52880915,0.52880915 0 0 0 0.529297,0.5292968 l 2.644531,0 a 0.52880915,0.52880915 0 0 0 0.529297,-0.5292968 l 0,-2.1152344 A 0.52880915,0.52880915 0 0 0 12.576228,3.4233866 l 0,-0.2636718 A 1.3220229,1.3220229 0 0 0 11.253962,1.8374491 Z m 0,0.4238281 c 0.49708,0 0.898438,0.4013575 0.898438,0.8984376 l 0,0.2636718 -1.796875,0 0,-0.2636718 c 0,-0.49708 0.401357,-0.8984376 0.898437,-0.8984376 z"
       style="display:inline;fill:#bebebe;fill-opacity:1;enable-background:new" />
    <path
       d="M 13.766,8.59024 12.40696,7.2312 11.66134,7.97682 12.84059,9.15078 9.84224,12.14913 3.85084,6.15772 6.84918,3.15937 7.95968,4.27516 8.7053,3.52954 7.40972,2.23396 c -0.31199,-0.312 -0.81437,-0.312 -1.12108,0 L 2.92542,5.59718 c -0.312,0.312 -0.312,0.81437 0,1.12107 l 6.35628,6.35629 c 0.312,0.312 0.81437,0.312 1.12108,0 L 13.766,9.71132 c 0.312,-0.312 0.312,-0.81437 0,-1.12108 z M 5.9502,12.67797 C 4.221,11.853041 2.98358,10.17142 2.79322,8.1831 L 2,8.1831 C 2.26441,11.440561 4.99306,14 8.31927,14 L 8.66828,13.9841 6.65352,11.96405 5.9502,12.67794"
       style="display:inline;opacity:0.35;fill:#bebebe;fill-opacity:1;enable-background:new"
       id="path4701-3" />
  </g>
</svg>

<svg xmlns="http://www.w3.org/2000/svg" viewBox="0 0 16 16">
  <path fill="#bebebe" d="M11.254 1.837A1.322 1.322 0 0 0 9.932 3.16v.264a.529.529 0 0 0-.53.529v2.115a.529.529 0 0 0 .529.529h2.645a.529.529 0 0 0 .529-.529V3.953a.529.529 0 0 0-.529-.53v-.264a1.322 1.322 0 0 0-1.322-1.322zm0 .424c.497 0 .898.401.898.898v.264h-1.797v-.264c0-.497.401-.898.898-.898z"/>
  <path fill="#bebebe" d="M13.766 8.59l-1.359-1.359-.746.746 1.18 1.174-2.999 2.998-5.991-5.991 2.998-2.999L7.96 4.275l.745-.745L7.41 2.234a.788.788 0 0 0-1.121 0L2.925 5.597a.788.788 0 0 0 0 1.121l6.356 6.356a.788.788 0 0 0 1.121 0l3.364-3.363a.788.788 0 0 0 0-1.121zM5.95 12.678a5.58 5.58 0 0 1-3.157-4.495H2A6.338 6.338 0 0 0 8.319 14l.349-.016-2.014-2.02z" opacity=".35"/>
</svg>
